X:502
%%etbk:tnset id:246,pos:3,rep:3x,ant:
%%etbk:wsite http://thesession.org/tunes/458
%%etbk:video src:ytube,cde:wEIcEXK1Rck,desc:second tune
%%etbk:skill ?
%%etbk:pldat 2013-11-21T18:44,2013-11-17T14:56,2013-11-16T15:44,2013-11-12T18:27,2013-11-11T18:14,2013-11-10T15:45,2013-10-03T19:07,2013-10-02T15:55,2013-09-16T15:18
T:Five Mile Chase, The
Z: Piano Box Version by Martin Fleischmann
H: Created 2013-09-10 /  Last Modified 2013-10-02
R:reel
M:4/4
K:Gmaj
|:"G"!1!G2!2!BG !4!dGB!1!G | "D"!2!F!4!A!1!DA FADA | "G"!1!G2!2!BG !4!dG !2!(3Bc!4!d|1 "D"!2!egf!5!a ge!1!d!2!B:||2 "D"!2!egf!5!a "G"!4!g3f||
"G"!4!g!2!d!1!Bd !3!edB!2!d|!4!g2!5!b!4!g "D"!3!f!5!aa!3!f | "G"!4!g!2!d!1!Bd !3!edBd | "D"!3!e!4!g!3!f!5!a "G"!4!g3!3!f|
"G"!4!g2!5!bg !3!efge|!2!ded!1!c !1!B!1!c!2!d2 | "C"!3!e3f !3!e!1!B!2!dB | "D"!2!egf!5!a !4!ge!1!d!2!B||
